icons/stop-24.svg

<svg width="24" height="24" viewBox="0 0 24 24" fill="none" xmlns="http://www.w3.org/2000/svg">
<path d="M12 7C12.4142 7 12.75 7.33579 12.75 7.75V12.25C12.75 12.6642 12.4142 13 12 13C11.5858 13 11.25 12.6642 11.25 12.25V7.75C11.25 7.33579 11.5858 7 12 7Z" fill="#24292E"/>
<path d="M12 17C12.5523 17 13 16.5523 13 16C13 15.4477 12.5523 15 12 15C11.4477 15 11 15.4477 11 16C11 16.5523 11.4477 17 12 17Z" fill="#24292E"/>
<path fill-rule="evenodd" clip-rule="evenodd" d="M7.32754 1.46967C7.46819 1.32902 7.65895 1.25 7.85786 1.25H16.1421C16.341 1.25 16.5318 1.32902 16.6725 1.46967L22.5303 7.32754C22.671 7.46819 22.75 7.65895 22.75 7.85786V16.1421C22.75 16.341 22.671 16.5318 22.5303 16.6725L16.6725 22.5303C16.5318 22.671 16.341 22.75 16.1421 22.75H7.85786C7.65895 22.75 7.46819 22.671 7.32753 22.5303L1.46967 16.6725C1.32902 16.5318 1.25 16.341 1.25 16.1421V7.85786C1.25 7.65895 1.32902 7.46819 1.46967 7.32754L7.32754 1.46967ZM8.16853 2.75L2.75 8.16853L2.75 15.8315L8.16852 21.25H15.8315L21.25 15.8315V8.16852L15.8315 2.75L8.16853 2.75Z" fill="#24292E"/>
</svg>

<svg xmlns="http://www.w3.org/2000/svg" width="24" height="24" viewBox="0 0 24 24"><path d="M12 7a.75.75 0 01.75.75v4.5a.75.75 0 01-1.5 0v-4.5A.75.75 0 0112 7zm0 10a1 1 0 100-2 1 1 0 000 2z"/><path fill-rule="evenodd" d="M7.328 1.47a.75.75 0 01.53-.22h8.284a.75.75 0 01.53.22l5.858 5.858c.141.14.22.33.22.53v8.284a.75.75 0 01-.22.53l-5.858 5.858a.75.75 0 01-.53.22H7.858a.75.75 0 01-.53-.22L1.47 16.672a.75.75 0 01-.22-.53V7.858a.75.75 0 01.22-.53L7.328 1.47zm.84 1.28L2.75 8.169v7.662l5.419 5.419h7.662l5.419-5.418V8.168L15.832 2.75H8.168z"/></svg>
